static/reference/values-types-variables/mental-model-of-types/union-intersection-inclusion.svg

<svg fill="none" height="400" viewBox="0 0 530 400" width="530" xmlns="http://www.w3.org/2000/svg" xmlns:xlink="http://www.w3.org/1999/xlink"><clipPath id="a"><path d="m0 0h400v530h-400z" transform="matrix(0 1 -1 0 530 0)"/></clipPath><mask id="b" fill="#fff"><path clip-rule="evenodd" d="m265 299.863c-37.472-27.27-61.829-71.472-61.829-121.363s24.357-94.0927 61.829-121.363c37.471 27.2703 61.829 71.472 61.829 121.363s-24.358 94.093-61.829 121.363z" fill="#fff" fill-rule="evenodd"/></mask><g clip-path="url(#a)"><path d="m0 0h400v530h-400z" fill="#fff" transform="matrix(0 1 -1 0 530 0)"/><path d="m0 0h530v400h-530z" fill="#b3e5fc"/><circle cx="176.829" cy="178.5" fill="#0288d1" r="148.5" stroke="#fff" stroke-width="3"/><circle cx="353.171" cy="178.5" fill="#0288d1" r="148.5" stroke="#fff" stroke-width="3"/><path clip-rule="evenodd" d="m265 299.863c-37.472-27.27-61.829-71.472-61.829-121.363s24.357-94.0927 61.829-121.363c37.471 27.2703 61.829 71.472 61.829 121.363s-24.358 94.093-61.829 121.363z" fill="#01579b" fill-rule="evenodd"/><g fill="#fff"><path d="m265 299.863-1.177 1.617 1.177.856 1.177-.856zm0-242.726 1.177-1.6171-1.177-.8565-1.177.8565zm61.829 121.363h2zm-60.652 119.746c-36.977-26.91-61.006-70.522-61.006-119.746h-4c0 50.557 24.686 95.349 62.652 122.98zm-61.006-119.746c0-49.224 24.029-92.8358 61.006-119.7459l-2.354-3.2342c-37.966 27.6305-62.652 72.4231-62.652 122.9801zm58.652-119.7459c36.977 26.9101 61.006 70.5219 61.006 119.7459h4c0-50.557-24.686-95.3496-62.652-122.9801zm61.006 119.7459c0 49.224-24.029 92.836-61.006 119.746l2.354 3.234c37.966-27.631 62.652-72.423 62.652-122.98z" mask="url(#b)"/><path d="m146.229 165.25h-.2c-.5 1.4-1.1 3.067-1.8 5-.666 1.933-1.366 3.933-2.1 6-.7 2.033-1.366 3.933-2 5.7l-.25.75c-.2.6-.45 1.35-.75 2.25s-.616 1.85-.95 2.85c-.333.967-.65 1.883-.95 2.75-.3.833-.533 1.517-.7 2.05-.233.1-.483.167-.75.2-.233.067-.533.1-.9.1-.533 0-1.016-.133-1.45-.4-.4-.3-.6-.767-.6-1.4 0-.3.05-.6.15-.9.1-.333.217-.683.35-1.05.4-1.133.884-2.517 1.45-4.15.6-1.633 1.25-3.417 1.95-5.35s1.434-3.917 2.2-5.95c.767-2.033 1.517-4.017 2.25-5.95.734-1.933 1.417-3.7 2.05-5.3.267-.133.667-.267 1.2-.4.534-.133 1.084-.2 1.65-.2.667 0 1.3.1 1.9.3.634.2 1.034.533 1.2 1 .8 1.933 1.65 4.133 2.55 6.6.934 2.433 1.867 4.983 2.8 7.65.934 2.633 1.817 5.2 2.65 7.7.867 2.5 1.634 4.767 2.3 6.8-.233.3-.55.533-.95.7-.366.2-.783.3-1.25.3-.633 0-1.116-.133-1.45-.4-.333-.3-.616-.783-.85-1.45l-2.75-8.15-.4-1.4c-.666-2.033-1.366-4.083-2.1-6.15-.7-2.067-1.366-3.983-2-5.75-.6-1.767-1.1-3.217-1.5-4.35zm-8.3 19.15 1.3-3.35h13.95l.8 3.35z"/><path d="m384.534 175.05v3.3h-13.75v-3.3zm-5.75 3.3 1.6-2.5c2.267 0 4.15.383 5.65 1.15 1.5.733 2.617 1.717 3.35 2.95.767 1.233 1.15 2.617 1.15 4.15 0 3.033-1.1 5.283-3.3 6.75-2.167 1.467-5.267 2.2-9.3 2.2-.9 0-1.8-.033-2.7-.1-.9-.033-1.783-.117-2.65-.25s-1.7-.3-2.5-.5c-1.4-.4-2.1-1.167-2.1-2.3v-25.6c0-.533.133-.95.4-1.25.3-.3.717-.517 1.25-.65 1.133-.333 2.333-.55 3.6-.65 1.3-.133 2.683-.2 4.15-.2 3.767 0 6.7.683 8.8 2.05 2.1 1.333 3.15 3.383 3.15 6.15 0 1.4-.35 2.7-1.05 3.9-.667 1.167-1.767 2.117-3.3 2.85-1.5.7-3.517 1.05-6.05 1.05l-.45-2.5c2.2 0 3.867-.45 5-1.35 1.133-.933 1.7-2.217 1.7-3.85 0-1.667-.667-2.9-2-3.7-1.3-.833-3.233-1.25-5.8-1.25-1.133 0-2.133.05-3 .15-.867.067-1.667.167-2.4.3v23.8c.8.167 1.717.3 2.75.4 1.067.1 2.133.15 3.2.15 2.767 0 4.867-.467 6.3-1.4s2.15-2.367 2.15-4.3c0-1.733-.65-3.1-1.95-4.1-1.267-1.033-3.15-1.55-5.65-1.55z"/><path d="m234.221 165.25h-.2c-.5 1.4-1.1 3.067-1.8 5-.666 1.933-1.366 3.933-2.1 6-.7 2.033-1.366 3.933-2 5.7l-.25.75c-.2.6-.45 1.35-.75 2.25s-.616 1.85-.95 2.85c-.333.967-.65 1.883-.95 2.75-.3.833-.533 1.517-.7 2.05-.233.1-.483.167-.75.2-.233.067-.533.1-.9.1-.533 0-1.016-.133-1.45-.4-.4-.3-.6-.767-.6-1.4 0-.3.05-.6.15-.9.1-.333.217-.683.35-1.05.4-1.133.884-2.517 1.45-4.15.6-1.633 1.25-3.417 1.95-5.35s1.434-3.917 2.2-5.95c.767-2.033 1.517-4.017 2.25-5.95.734-1.933 1.417-3.7 2.05-5.3.267-.133.667-.267 1.2-.4.534-.133 1.084-.2 1.65-.2.667 0 1.3.1 1.9.3.634.2 1.034.533 1.2 1 .8 1.933 1.65 4.133 2.55 6.6.934 2.433 1.867 4.983 2.8 7.65.934 2.633 1.817 5.2 2.65 7.7.867 2.5 1.634 4.767 2.3 6.8-.233.3-.55.533-.95.7-.366.2-.783.3-1.25.3-.633 0-1.116-.133-1.45-.4-.333-.3-.616-.783-.85-1.45l-2.75-8.15-.4-1.4c-.666-2.033-1.366-4.083-2.1-6.15-.7-2.067-1.366-3.983-2-5.75-.6-1.767-1.1-3.217-1.5-4.35zm-8.3 19.15 1.3-3.35h13.95l.8 3.35zm48.44 3-1.45 1.7c-1.133 1.233-2.517 2.233-4.15 3s-3.6 1.15-5.9 1.15-4.317-.417-6.05-1.25c-1.7-.833-3.033-2-4-3.5-.933-1.533-1.4-3.317-1.4-5.35 0-1.7.333-3.183 1-4.45.7-1.3 1.633-2.383 2.8-3.25s2.467-1.483 3.9-1.85l1.75 2.95c-.9.2-1.767.583-2.6 1.15-.8.533-1.467 1.267-2 2.2-.533.9-.8 2-.8 3.3 0 2 .65 3.617 1.95 4.85 1.333 1.2 3.167 1.8 5.5 1.8 1.267 0 2.567-.267 3.9-.8 1.367-.533 2.617-1.45 3.75-2.75l1.1-1.6c.6-1.1 1.067-2.483 1.4-4.15.367-1.667.55-3.567.55-5.7.3-.133.6-.233.9-.3.333-.1.65-.15.95-.15.667 0 1.167.2 1.5.6.333.367.5.917.5 1.65 0 1.867-.283 3.783-.85 5.75-.533 1.967-1.283 3.633-2.25 5zm2.8 5.8c-.667 0-1.333-.383-2-1.15l-15.3-16-1.25-1.4c-1.033-1.067-1.8-2.1-2.3-3.1-.5-1.033-.75-2.133-.75-3.3 0-1.367.3-2.55.9-3.55.633-1.033 1.533-1.833 2.7-2.4 1.2-.567 2.65-.85 4.35-.85 1.767 0 3.1.25 4 .75.933.5 1.4 1.133 1.4 1.9 0 .4-.117.767-.35 1.1-.2.3-.433.533-.7.7-.533-.3-1.167-.55-1.9-.75-.7-.2-1.433-.3-2.2-.3-1.267 0-2.267.317-3 .95-.733.6-1.1 1.433-1.1 2.5 0 1.033.267 1.95.8 2.75s1.3 1.717 2.3 2.75l16.6 17.25c-.1.667-.333 1.183-.7 1.55-.367.4-.867.6-1.5.6zm24.586-18.15v3.3h-13.75v-3.3zm-5.75 3.3 1.6-2.5c2.267 0 4.15.383 5.65 1.15 1.5.733 2.617 1.717 3.35 2.95.767 1.233 1.15 2.617 1.15 4.15 0 3.033-1.1 5.283-3.3 6.75-2.167 1.467-5.267 2.2-9.3 2.2-.9 0-1.8-.033-2.7-.1-.9-.033-1.783-.117-2.65-.25s-1.7-.3-2.5-.5c-1.4-.4-2.1-1.167-2.1-2.3v-25.6c0-.533.133-.95.4-1.25.3-.3.717-.517 1.25-.65 1.133-.333 2.333-.55 3.6-.65 1.3-.133 2.683-.2 4.15-.2 3.767 0 6.7.683 8.8 2.05 2.1 1.333 3.15 3.383 3.15 6.15 0 1.4-.35 2.7-1.05 3.9-.667 1.167-1.767 2.117-3.3 2.85-1.5.7-3.517 1.05-6.05 1.05l-.45-2.5c2.2 0 3.867-.45 5-1.35 1.133-.933 1.7-2.217 1.7-3.85 0-1.667-.667-2.9-2-3.7-1.3-.833-3.233-1.25-5.8-1.25-1.133 0-2.133.05-3 .15-.867.067-1.667.167-2.4.3v23.8c.8.167 1.717.3 2.75.4 1.067.1 2.133.15 3.2.15 2.767 0 4.867-.467 6.3-1.4s2.15-2.367 2.15-4.3c0-1.733-.65-3.1-1.95-4.1-1.267-1.033-3.15-1.55-5.65-1.55z"/></g><path d="m239.667 341.35h-.24c-.6 1.68-1.32 3.68-2.16 6-.8 2.32-1.64 4.72-2.52 7.2-.84 2.44-1.64 4.72-2.4 6.84l-.3.9c-.24.72-.54 1.62-.9 2.7s-.74 2.22-1.14 3.42c-.4 1.16-.78 2.26-1.14 3.3-.36 1-.64 1.82-.84 2.46-.28.12-.58.2-.9.24-.28.08-.64.12-1.08.12-.64 0-1.22-.16-1.74-.48-.48-.36-.72-.92-.72-1.68 0-.36.06-.72.18-1.08.12-.4.26-.82.42-1.26.48-1.36 1.06-3.02 1.74-4.98.72-1.96 1.5-4.1 2.34-6.42s1.72-4.7 2.64-7.14 1.82-4.82 2.7-7.14 1.7-4.44 2.46-6.36c.32-.16.8-.32 1.44-.48s1.3-.24 1.98-.24c.8 0 1.56.12 2.28.36.76.24 1.24.64 1.44 1.2.96 2.32 1.98 4.96 3.06 7.92 1.12 2.92 2.24 5.98 3.36 9.18 1.12 3.16 2.18 6.24 3.18 9.24 1.04 3 1.96 5.72 2.76 8.16-.28.36-.66.64-1.14.84-.44.24-.94.36-1.5.36-.76 0-1.34-.16-1.74-.48-.4-.36-.74-.94-1.02-1.74l-3.3-9.78-.48-1.68c-.8-2.44-1.64-4.9-2.52-7.38-.84-2.48-1.64-4.78-2.4-6.9-.72-2.12-1.32-3.86-1.8-5.22zm-9.96 22.98 1.56-4.02h16.74l.96 4.02zm37.188-31.8v49.32c-.28.12-.58.22-.9.3s-.7.12-1.14.12c-.76 0-1.32-.18-1.68-.54-.32-.36-.48-.96-.48-1.8v-49.32c.32-.12.62-.22.9-.3.32-.08.7-.12 1.14-.12.76 0 1.3.18 1.62.54.36.36.54.96.54 1.8zm30.6 20.58v3.96h-16.5v-3.96zm-6.9 3.96 1.92-3c2.72 0 4.98.46 6.78 1.38 1.8.88 3.14 2.06 4.02 3.54.92 1.48 1.38 3.14 1.38 4.98 0 3.64-1.32 6.34-3.96 8.1-2.6 1.76-6.32 2.64-11.16 2.64-1.08 0-2.16-.04-3.24-.12-1.08-.04-2.14-.14-3.18-.3s-2.04-.36-3-.6c-1.68-.48-2.52-1.4-2.52-2.76v-30.72c0-.64.16-1.14.48-1.5.36-.36.86-.62 1.5-.78 1.36-.4 2.8-.66 4.32-.78 1.56-.16 3.22-.24 4.98-.24 4.52 0 8.04.82 10.56 2.46 2.52 1.6 3.78 4.06 3.78 7.38 0 1.68-.42 3.24-1.26 4.68-.8 1.4-2.12 2.54-3.96 3.42-1.8.84-4.22 1.26-7.26 1.26l-.54-3c2.64 0 4.64-.54 6-1.62 1.36-1.12 2.04-2.66 2.04-4.62 0-2-.8-3.48-2.4-4.44-1.56-1-3.88-1.5-6.96-1.5-1.36 0-2.56.06-3.6.18-1.04.08-2 .2-2.88.36v28.56c.96.2 2.06.36 3.3.48 1.28.12 2.56.18 3.84.18 3.32 0 5.84-.56 7.56-1.68s2.58-2.84 2.58-5.16c0-2.08-.78-3.72-2.34-4.92-1.52-1.24-3.78-1.86-6.78-1.86z" fill="#0288d1"/></g></svg>

<svg width="530" height="400" viewBox="0 0 530 400" fill="none" xmlns="http://www.w3.org/2000/svg">
<g clip-path="url(#clip0_202_3240)">
<rect width="400" height="530" transform="translate(530) rotate(90)" fill="white"/>
<rect width="530" height="400" fill="#B3E5FC"/>
<circle cx="176.829" cy="178.5" r="148.5" fill="#0288D1" stroke="white" stroke-width="3"/>
<circle cx="353.171" cy="178.5" r="148.5" fill="#0288D1" stroke="white" stroke-width="3"/>
<mask id="path-4-inside-1_202_3240" fill="white">
<path fill-rule="evenodd" clip-rule="evenodd" d="M265 299.863C227.528 272.593 203.171 228.391 203.171 178.5C203.171 128.609 227.528 84.4073 265 57.137C302.471 84.4073 326.829 128.609 326.829 178.5C326.829 228.391 302.471 272.593 265 299.863Z"/>
</mask>
<path fill-rule="evenodd" clip-rule="evenodd" d="M265 299.863C227.528 272.593 203.171 228.391 203.171 178.5C203.171 128.609 227.528 84.4073 265 57.137C302.471 84.4073 326.829 128.609 326.829 178.5C326.829 228.391 302.471 272.593 265 299.863Z" fill="#01579B"/>
<path d="M265 299.863L263.823 301.48L265 302.336L266.177 301.48L265 299.863ZM265 57.137L266.177 55.5199L265 54.6634L263.823 55.5199L265 57.137ZM326.829 178.5L328.829 178.5L326.829 178.5ZM266.177 298.246C229.2 271.336 205.171 227.724 205.171 178.5L201.171 178.5C201.171 229.057 225.857 273.849 263.823 301.48L266.177 298.246ZM205.171 178.5C205.171 129.276 229.2 85.6642 266.177 58.7541L263.823 55.5199C225.857 83.1504 201.171 127.943 201.171 178.5L205.171 178.5ZM263.823 58.7541C300.8 85.6642 324.829 129.276 324.829 178.5L328.829 178.5C328.829 127.943 304.143 83.1504 266.177 55.5199L263.823 58.7541ZM324.829 178.5C324.829 227.724 300.8 271.336 263.823 298.246L266.177 301.48C304.143 273.849 328.829 229.057 328.829 178.5L324.829 178.5Z" fill="white" mask="url(#path-4-inside-1_202_3240)"/>
<path d="M146.229 165.25H146.029C145.529 166.65 144.929 168.317 144.229 170.25C143.563 172.183 142.863 174.183 142.129 176.25C141.429 178.283 140.763 180.183 140.129 181.95L139.879 182.7C139.679 183.3 139.429 184.05 139.129 184.95C138.829 185.85 138.513 186.8 138.179 187.8C137.846 188.767 137.529 189.683 137.229 190.55C136.929 191.383 136.696 192.067 136.529 192.6C136.296 192.7 136.046 192.767 135.779 192.8C135.546 192.867 135.246 192.9 134.879 192.9C134.346 192.9 133.863 192.767 133.429 192.5C133.029 192.2 132.829 191.733 132.829 191.1C132.829 190.8 132.879 190.5 132.979 190.2C133.079 189.867 133.196 189.517 133.329 189.15C133.729 188.017 134.213 186.633 134.779 185C135.379 183.367 136.029 181.583 136.729 179.65C137.429 177.717 138.163 175.733 138.929 173.7C139.696 171.667 140.446 169.683 141.179 167.75C141.913 165.817 142.596 164.05 143.229 162.45C143.496 162.317 143.896 162.183 144.429 162.05C144.963 161.917 145.513 161.85 146.079 161.85C146.746 161.85 147.379 161.95 147.979 162.15C148.613 162.35 149.013 162.683 149.179 163.15C149.979 165.083 150.829 167.283 151.729 169.75C152.663 172.183 153.596 174.733 154.529 177.4C155.463 180.033 156.346 182.6 157.179 185.1C158.046 187.6 158.813 189.867 159.479 191.9C159.246 192.2 158.929 192.433 158.529 192.6C158.163 192.8 157.746 192.9 157.279 192.9C156.646 192.9 156.163 192.767 155.829 192.5C155.496 192.2 155.213 191.717 154.979 191.05L152.229 182.9L151.829 181.5C151.163 179.467 150.463 177.417 149.729 175.35C149.029 173.283 148.363 171.367 147.729 169.6C147.129 167.833 146.629 166.383 146.229 165.25ZM137.929 184.4L139.229 181.05H153.179L153.979 184.4H137.929Z" fill="white"/>
<path d="M384.534 175.05V178.35H370.784V175.05H384.534ZM378.784 178.35L380.384 175.85C382.651 175.85 384.534 176.233 386.034 177C387.534 177.733 388.651 178.717 389.384 179.95C390.151 181.183 390.534 182.567 390.534 184.1C390.534 187.133 389.434 189.383 387.234 190.85C385.067 192.317 381.967 193.05 377.934 193.05C377.034 193.05 376.134 193.017 375.234 192.95C374.334 192.917 373.451 192.833 372.584 192.7C371.717 192.567 370.884 192.4 370.084 192.2C368.684 191.8 367.984 191.033 367.984 189.9V164.3C367.984 163.767 368.117 163.35 368.384 163.05C368.684 162.75 369.101 162.533 369.634 162.4C370.767 162.067 371.967 161.85 373.234 161.75C374.534 161.617 375.917 161.55 377.384 161.55C381.151 161.55 384.084 162.233 386.184 163.6C388.284 164.933 389.334 166.983 389.334 169.75C389.334 171.15 388.984 172.45 388.284 173.65C387.617 174.817 386.517 175.767 384.984 176.5C383.484 177.2 381.467 177.55 378.934 177.55L378.484 175.05C380.684 175.05 382.351 174.6 383.484 173.7C384.617 172.767 385.184 171.483 385.184 169.85C385.184 168.183 384.517 166.95 383.184 166.15C381.884 165.317 379.951 164.9 377.384 164.9C376.251 164.9 375.251 164.95 374.384 165.05C373.517 165.117 372.717 165.217 371.984 165.35V189.15C372.784 189.317 373.701 189.45 374.734 189.55C375.801 189.65 376.867 189.7 377.934 189.7C380.701 189.7 382.801 189.233 384.234 188.3C385.667 187.367 386.384 185.933 386.384 184C386.384 182.267 385.734 180.9 384.434 179.9C383.167 178.867 381.284 178.35 378.784 178.35Z" fill="white"/>
<path d="M234.221 165.25H234.021C233.521 166.65 232.921 168.317 232.221 170.25C231.555 172.183 230.855 174.183 230.121 176.25C229.421 178.283 228.755 180.183 228.121 181.95L227.871 182.7C227.671 183.3 227.421 184.05 227.121 184.95C226.821 185.85 226.505 186.8 226.171 187.8C225.838 188.767 225.521 189.683 225.221 190.55C224.921 191.383 224.688 192.067 224.521 192.6C224.288 192.7 224.038 192.767 223.771 192.8C223.538 192.867 223.238 192.9 222.871 192.9C222.338 192.9 221.855 192.767 221.421 192.5C221.021 192.2 220.821 191.733 220.821 191.1C220.821 190.8 220.871 190.5 220.971 190.2C221.071 189.867 221.188 189.517 221.321 189.15C221.721 188.017 222.205 186.633 222.771 185C223.371 183.367 224.021 181.583 224.721 179.65C225.421 177.717 226.155 175.733 226.921 173.7C227.688 171.667 228.438 169.683 229.171 167.75C229.905 165.817 230.588 164.05 231.221 162.45C231.488 162.317 231.888 162.183 232.421 162.05C232.955 161.917 233.505 161.85 234.071 161.85C234.738 161.85 235.371 161.95 235.971 162.15C236.605 162.35 237.005 162.683 237.171 163.15C237.971 165.083 238.821 167.283 239.721 169.75C240.655 172.183 241.588 174.733 242.521 177.4C243.455 180.033 244.338 182.6 245.171 185.1C246.038 187.6 246.805 189.867 247.471 191.9C247.238 192.2 246.921 192.433 246.521 192.6C246.155 192.8 245.738 192.9 245.271 192.9C244.638 192.9 244.155 192.767 243.821 192.5C243.488 192.2 243.205 191.717 242.971 191.05L240.221 182.9L239.821 181.5C239.155 179.467 238.455 177.417 237.721 175.35C237.021 173.283 236.355 171.367 235.721 169.6C235.121 167.833 234.621 166.383 234.221 165.25ZM225.921 184.4L227.221 181.05H241.171L241.971 184.4H225.921ZM274.361 187.4L272.911 189.1C271.778 190.333 270.394 191.333 268.761 192.1C267.128 192.867 265.161 193.25 262.861 193.25C260.561 193.25 258.544 192.833 256.811 192C255.111 191.167 253.778 190 252.811 188.5C251.878 186.967 251.411 185.183 251.411 183.15C251.411 181.45 251.744 179.967 252.411 178.7C253.111 177.4 254.044 176.317 255.211 175.45C256.378 174.583 257.678 173.967 259.111 173.6L260.861 176.55C259.961 176.75 259.094 177.133 258.261 177.7C257.461 178.233 256.794 178.967 256.261 179.9C255.728 180.8 255.461 181.9 255.461 183.2C255.461 185.2 256.111 186.817 257.411 188.05C258.744 189.25 260.578 189.85 262.911 189.85C264.178 189.85 265.478 189.583 266.811 189.05C268.178 188.517 269.428 187.6 270.561 186.3L271.661 184.7C272.261 183.6 272.728 182.217 273.061 180.55C273.428 178.883 273.611 176.983 273.611 174.85C273.911 174.717 274.211 174.617 274.511 174.55C274.844 174.45 275.161 174.4 275.461 174.4C276.128 174.4 276.628 174.6 276.961 175C277.294 175.367 277.461 175.917 277.461 176.65C277.461 178.517 277.178 180.433 276.611 182.4C276.078 184.367 275.328 186.033 274.361 187.4ZM277.161 193.2C276.494 193.2 275.828 192.817 275.161 192.05L259.861 176.05L258.611 174.65C257.578 173.583 256.811 172.55 256.311 171.55C255.811 170.517 255.561 169.417 255.561 168.25C255.561 166.883 255.861 165.7 256.461 164.7C257.094 163.667 257.994 162.867 259.161 162.3C260.361 161.733 261.811 161.45 263.511 161.45C265.278 161.45 266.611 161.7 267.511 162.2C268.444 162.7 268.911 163.333 268.911 164.1C268.911 164.5 268.794 164.867 268.561 165.2C268.361 165.5 268.128 165.733 267.861 165.9C267.328 165.6 266.694 165.35 265.961 165.15C265.261 164.95 264.528 164.85 263.761 164.85C262.494 164.85 261.494 165.167 260.761 165.8C260.028 166.4 259.661 167.233 259.661 168.3C259.661 169.333 259.928 170.25 260.461 171.05C260.994 171.85 261.761 172.767 262.761 173.8L279.361 191.05C279.261 191.717 279.028 192.233 278.661 192.6C278.294 193 277.794 193.2 277.161 193.2ZM301.747 175.05V178.35H287.997V175.05H301.747ZM295.997 178.35L297.597 175.85C299.864 175.85 301.747 176.233 303.247 177C304.747 177.733 305.864 178.717 306.597 179.95C307.364 181.183 307.747 182.567 307.747 184.1C307.747 187.133 306.647 189.383 304.447 190.85C302.28 192.317 299.18 193.05 295.147 193.05C294.247 193.05 293.347 193.017 292.447 192.95C291.547 192.917 290.664 192.833 289.797 192.7C288.93 192.567 288.097 192.4 287.297 192.2C285.897 191.8 285.197 191.033 285.197 189.9V164.3C285.197 163.767 285.33 163.35 285.597 163.05C285.897 162.75 286.314 162.533 286.847 162.4C287.98 162.067 289.18 161.85 290.447 161.75C291.747 161.617 293.13 161.55 294.597 161.55C298.364 161.55 301.297 162.233 303.397 163.6C305.497 164.933 306.547 166.983 306.547 169.75C306.547 171.15 306.197 172.45 305.497 173.65C304.83 174.817 303.73 175.767 302.197 176.5C300.697 177.2 298.68 177.55 296.147 177.55L295.697 175.05C297.897 175.05 299.564 174.6 300.697 173.7C301.83 172.767 302.397 171.483 302.397 169.85C302.397 168.183 301.73 166.95 300.397 166.15C299.097 165.317 297.164 164.9 294.597 164.9C293.464 164.9 292.464 164.95 291.597 165.05C290.73 165.117 289.93 165.217 289.197 165.35V189.15C289.997 189.317 290.914 189.45 291.947 189.55C293.014 189.65 294.08 189.7 295.147 189.7C297.914 189.7 300.014 189.233 301.447 188.3C302.88 187.367 303.597 185.933 303.597 184C303.597 182.267 302.947 180.9 301.647 179.9C300.38 178.867 298.497 178.35 295.997 178.35Z" fill="white"/>
<path d="M239.667 345.35H239.427C238.827 347.03 238.107 349.03 237.267 351.35C236.467 353.67 235.627 356.07 234.747 358.55C233.907 360.99 233.107 363.27 232.347 365.39L232.047 366.29C231.807 367.01 231.507 367.91 231.147 368.99C230.787 370.07 230.407 371.21 230.007 372.41C229.607 373.57 229.227 374.67 228.867 375.71C228.507 376.71 228.227 377.53 228.027 378.17C227.747 378.29 227.447 378.37 227.127 378.41C226.847 378.49 226.487 378.53 226.047 378.53C225.407 378.53 224.827 378.37 224.307 378.05C223.827 377.69 223.587 377.13 223.587 376.37C223.587 376.01 223.647 375.65 223.767 375.29C223.887 374.89 224.027 374.47 224.187 374.03C224.667 372.67 225.247 371.01 225.927 369.05C226.647 367.09 227.427 364.95 228.267 362.63C229.107 360.31 229.987 357.93 230.907 355.49C231.827 353.05 232.727 350.67 233.607 348.35C234.487 346.03 235.307 343.91 236.067 341.99C236.387 341.83 236.867 341.67 237.507 341.51C238.147 341.35 238.807 341.27 239.487 341.27C240.287 341.27 241.047 341.39 241.767 341.63C242.527 341.87 243.007 342.27 243.207 342.83C244.167 345.15 245.187 347.79 246.267 350.75C247.387 353.67 248.507 356.73 249.627 359.93C250.747 363.09 251.807 366.17 252.807 369.17C253.847 372.17 254.767 374.89 255.567 377.33C255.287 377.69 254.907 377.97 254.427 378.17C253.987 378.41 253.487 378.53 252.927 378.53C252.167 378.53 251.587 378.37 251.187 378.05C250.787 377.69 250.447 377.11 250.167 376.31L246.867 366.53L246.387 364.85C245.587 362.41 244.747 359.95 243.867 357.47C243.027 354.99 242.227 352.69 241.467 350.57C240.747 348.45 240.147 346.71 239.667 345.35ZM229.707 368.33L231.267 364.31H248.007L248.967 368.33H229.707ZM266.895 336.53V385.85C266.615 385.97 266.315 386.07 265.995 386.15C265.675 386.23 265.295 386.27 264.855 386.27C264.095 386.27 263.535 386.09 263.175 385.73C262.855 385.37 262.695 384.77 262.695 383.93V334.61C263.015 334.49 263.315 334.39 263.595 334.31C263.915 334.23 264.295 334.19 264.735 334.19C265.495 334.19 266.035 334.37 266.355 334.73C266.715 335.09 266.895 335.69 266.895 336.53ZM297.495 357.11V361.07H280.995V357.11H297.495ZM290.595 361.07L292.515 358.07C295.235 358.07 297.495 358.53 299.295 359.45C301.095 360.33 302.435 361.51 303.315 362.99C304.235 364.47 304.695 366.13 304.695 367.97C304.695 371.61 303.375 374.31 300.735 376.07C298.135 377.83 294.415 378.71 289.575 378.71C288.495 378.71 287.415 378.67 286.335 378.59C285.255 378.55 284.195 378.45 283.155 378.29C282.115 378.13 281.115 377.93 280.155 377.69C278.475 377.21 277.635 376.29 277.635 374.93V344.21C277.635 343.57 277.795 343.07 278.115 342.71C278.475 342.35 278.975 342.09 279.615 341.93C280.975 341.53 282.415 341.27 283.935 341.15C285.495 340.99 287.155 340.91 288.915 340.91C293.435 340.91 296.955 341.73 299.475 343.37C301.995 344.97 303.255 347.43 303.255 350.75C303.255 352.43 302.835 353.99 301.995 355.43C301.195 356.83 299.875 357.97 298.035 358.85C296.235 359.69 293.815 360.11 290.775 360.11L290.235 357.11C292.875 357.11 294.875 356.57 296.235 355.49C297.595 354.37 298.275 352.83 298.275 350.87C298.275 348.87 297.475 347.39 295.875 346.43C294.315 345.43 291.995 344.93 288.915 344.93C287.555 344.93 286.355 344.99 285.315 345.11C284.275 345.19 283.315 345.31 282.435 345.47V374.03C283.395 374.23 284.495 374.39 285.735 374.51C287.015 374.63 288.295 374.69 289.575 374.69C292.895 374.69 295.415 374.13 297.135 373.01C298.855 371.89 299.715 370.17 299.715 367.85C299.715 365.77 298.935 364.13 297.375 362.93C295.855 361.69 293.595 361.07 290.595 361.07Z" fill="#0288D1"/>
<path d="M211.098 322.924L224.665 340.625" stroke="white" stroke-width="3" stroke-linecap="round"/>
<path d="M318.665 322.924L305.098 340.625" stroke="white" stroke-width="3" stroke-linecap="round"/>
</g>
<defs>
<clipPath id="clip0_202_3240">
<rect width="400" height="530" fill="white" transform="translate(530) rotate(90)"/>
</clipPath>
</defs>
</svg>
